; generated by PrusaSlicer 2.7.2+win64 on 2024-03-07 at 20:41:57 UTC


;
;
; 

; external perimeters extrusion width = 0.45mm
; perimeters extrusion width = 0.45mm
; infill extrusion width = 0.45mm
; solid infill extrusion width = 0.45mm
; top infill extrusion width = 0.40mm

; external perimeters extrusion width = 0.45mm
; perimeters extrusion width = 0.45mm
; infill extrusion width = 0.45mm
; solid infill extrusion width = 0.45mm
; top infill extrusion width = 0.40mm

; external perimeters extrusion width = 0.45mm
; perimeters extrusion width = 0.45mm
; infill extrusion width = 0.45mm
; solid infill extrusion width = 0.45mm
; top infill extrusion width = 0.40mm

; external perimeters extrusion width = 0.45mm
; perimeters extrusion width = 0.45mm
; infill extrusion width = 0.45mm
; solid infill extrusion width = 0.45mm
; top infill extrusion width = 0.40mm

; external perimeters extrusion width = 0.45mm
; perimeters extrusion width = 0.45mm
; infill extrusion width = 0.45mm
; solid infill extrusion width = 0.45mm
; top infill extrusion width = 0.40mm

; external perimeters extrusion width = 0.45mm
; perimeters extrusion width = 0.45mm
; infill extrusion width = 0.45mm
; solid infill extrusion width = 0.45mm
; top infill extrusion width = 0.40mm

; external perimeters extrusion width = 0.45mm
; perimeters extrusion width = 0.45mm
; infill extrusion width = 0.45mm
; solid infill extrusion width = 0.45mm
; top infill extrusion width = 0.40mm

; external perimeters extrusion width = 0.45mm
; perimeters extrusion width = 0.45mm
; infill extrusion width = 0.45mm
; solid infill extrusion width = 0.45mm
; top infill extrusion width = 0.40mm

; external perimeters extrusion width = 0.45mm
; perimeters extrusion width = 0.45mm
; infill extrusion width = 0.45mm
; solid infill extrusion width = 0.45mm
; top infill extrusion width = 0.40mm

M73 P0 R7

EXCLUDE_OBJECT_DEFINE NAME='099' CENTER=135.500,99.500 POLYGON=[[143.000,107.000],[128.000,107.000],[128.000,92.000],[143.000,92.000]]
EXCLUDE_OBJECT_DEFINE NAME='095P5_Will_be_ignored' CENTER=117.500,99.500 POLYGON=[[125.000,107.000],[110.000,107.000],[110.000,92.000],[125.000,92.000]]
EXCLUDE_OBJECT_DEFINE NAME='098' CENTER=99.500,99.500 POLYGON=[[107.000,107.000],[92.000,107.000],[92.000,92.000],[107.000,92.000]]
EXCLUDE_OBJECT_DEFINE NAME='102' CENTER=135.500,135.500 POLYGON=[[143.000,143.000],[128.000,143.000],[128.000,128.000],[143.000,128.000]]
EXCLUDE_OBJECT_DEFINE NAME='Default_will_use_one_hundred' CENTER=117.500,117.500 POLYGON=[[125.000,125.000],[110.000,125.000],[110.000,110.000],[125.000,110.000]]
EXCLUDE_OBJECT_DEFINE NAME='099P5' CENTER=99.500,117.500 POLYGON=[[107.000,125.000],[92.000,125.000],[92.000,110.000],[107.000,110.000]]
EXCLUDE_OBJECT_DEFINE NAME='101' CENTER=99.500,135.500 POLYGON=[[107.000,143.000],[92.000,143.000],[92.000,128.000],[107.000,128.000]]
EXCLUDE_OBJECT_DEFINE NAME='100P5' CENTER=135.500,117.500 POLYGON=[[143.000,125.000],[128.000,125.000],[128.000,110.000],[143.000,110.000]]
EXCLUDE_OBJECT_DEFINE NAME='101P5_Test_text' CENTER=117.500,135.500 POLYGON=[[125.000,143.000],[110.000,143.000],[110.000,128.000],[125.000,128.000]]

;TYPE:Custom
PRINT_START BED_MESH="adaptive" BED_TEMP=60 EXTRUDER_TEMP=210 AREA_START=88.036,88.0359 AREA_END=146.964,146.964
G21 ; set units to millimeters
G90 ; use absolute coordinates
M83 ; use relative distances for extrusion
FILAMENT_START_GCODE
M107
;LAYER_CHANGE
;Z:0.3
;HEIGHT:0.3
G10 ; retract
G1 Z.3 F30000
G1 X89.725 Y88.992
G11 ; unretract
;TYPE:Skirt/Brim
;WIDTH:0.45
G1 F6223.752
G1 X92 Y88.229 E.11195
G1 X143 Y88.229 E2.37934
G1 X144.68 Y88.623 E.0805
G1 X146.008 Y89.725 E.08051
G1 X146.771 Y92 E.11195
G1 X146.771 Y143 E2.37934
G1 X146.377 Y144.68 E.0805
G1 X145.275 Y146.008 E.08051
G1 X143 Y146.771 E.11195
G1 X92 Y146.771 E2.37934
G1 X90.32 Y146.377 E.0805
G1 X88.992 Y145.275 E.08051
G1 X88.229 Y143 E.11195
G1 X88.229 Y92 E2.37934
G1 X88.623 Y90.32 E.0805
G1 X89.687 Y89.038 E.07773
G1 X89.687 Y89.038 F30000
G1 X89.995 Y89.315
G1 F6223.752
G1 X90.099 Y89.198 E.0073
G1 X92 Y88.614 E.09278
G1 X143 Y88.614 E2.37934
G1 X144.585 Y89.008 E.0762
G1 X145.802 Y90.099 E.07625
G1 X146.386 Y92 E.09278
G1 X146.386 Y143 E2.37934
G1 X145.992 Y144.585 E.0762
G1 X144.901 Y145.802 E.07625
G1 X143 Y146.386 E.09278
G1 X92 Y146.386 E2.37934
M73 P1 R7
G1 X90.415 Y145.992 E.0762
G1 X89.198 Y144.901 E.07625
G1 X88.614 Y143 E.09278
G1 X88.614 Y92 E2.37934
G1 X89.008 Y90.415 E.0762
G1 X89.955 Y89.359 E.06618
EXCLUDE_OBJECT_START NAME='Default_will_use_one_hundred'
M221 S100
G10 ; retract
G1 X89.955 Y89.359 F30000
G1 X110.611 Y110.611
G11 ; unretract
;TYPE:Perimeter
;WIDTH:0.45
G1 F6223.76
G1 X124.389 Y110.611 E.64279
G1 X124.389 Y117.5 E.3214
G1 X124.389 Y124.389 E.3214
G1 X110.611 Y124.389 E.64279
G1 X110.611 Y110.671 E.63999
G1 X110.611 Y110.671 F30000
G1 X110.225 Y110.225
;TYPE:External perimeter
G1 F6223.76
G1 X124.775 Y110.225 E.67881
G1 X124.775 Y117.5 E.33941
G1 X124.775 Y124.775 E.33941
G1 X110.225 Y124.775 E.67881
G1 X110.225 Y110.285 E.67601
G1 X110.621 Y110.226 F30000
G10 ; retract
G1 X124.274 Y111.52
G11 ; unretract
;TYPE:Solid infill
;WIDTH:0.456491
G1 F6120.731
G1 X123.654 Y110.9 E.0416
G1 X123.099 Y110.9 E.02633
G1 X124.1 Y111.901 E.06716
G1 X124.1 Y112.455 E.02628
G1 X122.545 Y110.9 E.10432
G1 X121.99 Y110.9 E.02633
G1 X124.1 Y113.01 E.14156
G1 X124.1 Y113.564 E.02628
G1 X121.436 Y110.9 E.17872
G1 X120.881 Y110.9 E.02633
G1 X124.1 Y114.119 E.21596
G1 X124.1 Y114.673 E.02628
G1 X120.327 Y110.9 E.25313
G1 X119.772 Y110.9 E.02633
G1 X124.1 Y115.228 E.29036
G1 X124.1 Y115.782 E.02628
G1 X119.218 Y110.9 E.32753
G1 X118.663 Y110.9 E.02633
G1 X124.1 Y116.337 E.36476
G1 X124.1 Y116.891 E.02628
G1 X118.109 Y110.9 E.40193
G1 X117.554 Y110.9 E.02633
G1 X124.1 Y117.446 E.43916
G1 X124.1 Y118 E.02628
G1 X117 Y110.9 E.47633
G1 X116.445 Y110.9 E.02633
G1 X124.1 Y118.555 E.51356
G1 X124.1 Y119.109 E.02628
M73 P2 R7
G1 X115.891 Y110.9 E.55073
G1 X115.336 Y110.9 E.02633
G1 X124.1 Y119.664 E.58797
G1 X124.1 Y120.219 E.02633
G1 X114.781 Y110.9 E.6252
G1 X114.227 Y110.9 E.02628
G1 X124.1 Y120.773 E.66237
G1 X124.1 Y121.328 E.02633
G1 X113.672 Y110.9 E.6996
G1 X113.118 Y110.9 E.02628
G1 X124.1 Y121.882 E.73677
G1 X124.1 Y122.437 E.02633
G1 X112.563 Y110.9 E.774
G1 X112.009 Y110.9 E.02628
G1 X124.1 Y122.991 E.81117
G1 X124.1 Y123.546 E.02633
G1 X111.454 Y110.9 E.8484
G1 X110.9 Y110.9 E.02628
G1 X124.1 Y124.1 E.88557
G1 X123.546 Y124.1 E.02628
G1 X110.9 Y111.454 E.8484
G1 X110.9 Y112.009 E.02633
G1 X122.991 Y124.1 E.81117
G1 X122.437 Y124.1 E.02628
G1 X110.9 Y112.563 E.774
G1 X110.9 Y113.118 E.02633
G1 X121.882 Y124.1 E.73677
G1 X121.327 Y124.1 E.02633
G1 X110.9 Y113.673 E.69953
G1 X110.9 Y114.227 E.02628
G1 X120.773 Y124.1 E.66237
G1 X120.218 Y124.1 E.02633
G1 X110.9 Y114.782 E.62513
G1 X110.9 Y115.336 E.02628
G1 X119.664 Y124.1 E.58797
G1 X119.109 Y124.1 E.02633
G1 X110.9 Y115.891 E.55073
G1 X110.9 Y116.445 E.02628
G1 X118.555 Y124.1 E.51356
G1 X118 Y124.1 E.02633
G1 X110.9 Y117 E.47633
G1 X110.9 Y117.554 E.02628
G1 X117.446 Y124.1 E.43916
G1 X116.891 Y124.1 E.02633
G1 X110.9 Y118.109 E.40193
G1 X110.9 Y118.663 E.02628
G1 X116.337 Y124.1 E.36476
G1 X115.782 Y124.1 E.02633
M73 P3 R7
G1 X110.9 Y119.218 E.32753
G1 X110.9 Y119.772 E.02628
G1 X115.228 Y124.1 E.29036
G1 X114.673 Y124.1 E.02633
G1 X110.9 Y120.327 E.25313
G1 X110.9 Y120.881 E.02628
G1 X114.119 Y124.1 E.21596
G1 X113.564 Y124.1 E.02633
G1 X110.9 Y121.436 E.17872
G1 X110.9 Y121.99 E.02628
G1 X113.01 Y124.1 E.14156
G1 X112.455 Y124.1 E.02633
G1 X110.9 Y122.545 E.10432
G1 X110.9 Y123.099 E.02628
G1 X111.901 Y124.1 E.06716
G1 X111.346 Y124.1 E.02633
G1 X110.726 Y123.48 E.0416
EXCLUDE_OBJECT_END NAME='Default_will_use_one_hundred'
EXCLUDE_OBJECT_START NAME='101P5_Test_text'
M221 S101.5
G10 ; retract
G1 X110.726 Y123.48 F30000
G1 X110.611 Y128.611
G11 ; unretract
;TYPE:Perimeter
;WIDTH:0.45
G1 F6223.76
G1 X124.389 Y128.611 E.64279
G1 X124.389 Y135.5 E.3214
G1 X124.389 Y142.389 E.3214
G1 X110.611 Y142.389 E.64279
G1 X110.611 Y128.671 E.63999
G1 X110.611 Y128.671 F30000
G1 X110.225 Y128.225
;TYPE:External perimeter
G1 F6223.76
G1 X124.775 Y128.225 E.67881
G1 X124.775 Y135.5 E.33941
G1 X124.775 Y142.775 E.33941
G1 X110.225 Y142.775 E.67881
G1 X110.225 Y128.285 E.67601
G1 X110.621 Y128.226 F30000
G10 ; retract
G1 X124.274 Y129.52
G11 ; unretract
;TYPE:Solid infill
;WIDTH:0.456491
G1 F6120.731
G1 X123.654 Y128.9 E.0416
G1 X123.099 Y128.9 E.02633
G1 X124.1 Y129.901 E.06716
G1 X124.1 Y130.455 E.02628
G1 X122.545 Y128.9 E.10432
G1 X121.99 Y128.9 E.02633
G1 X124.1 Y131.01 E.14156
G1 X124.1 Y131.564 E.02628
G1 X121.436 Y128.9 E.17872
G1 X120.881 Y128.9 E.02633
G1 X124.1 Y132.119 E.21596
G1 X124.1 Y132.673 E.02628
G1 X120.327 Y128.9 E.25313
G1 X119.772 Y128.9 E.02633
G1 X124.1 Y133.228 E.29036
G1 X124.1 Y133.782 E.02628
G1 X119.218 Y128.9 E.32753
G1 X118.663 Y128.9 E.02633
G1 X124.1 Y134.337 E.36476
G1 X124.1 Y134.891 E.02628
G1 X118.109 Y128.9 E.40193
G1 X117.554 Y128.9 E.02633
G1 X124.1 Y135.446 E.43916
G1 X124.1 Y136 E.02628
G1 X117 Y128.9 E.47633
G1 X116.445 Y128.9 E.02633
G1 X124.1 Y136.555 E.51356
G1 X124.1 Y137.109 E.02628
G1 X115.891 Y128.9 E.55073
G1 X115.336 Y128.9 E.02633
G1 X124.1 Y137.664 E.58797
G1 X124.1 Y138.219 E.02633
G1 X114.781 Y128.9 E.6252
G1 X114.227 Y128.9 E.02628
G1 X124.1 Y138.773 E.66237
M73 P4 R7
G1 X124.1 Y139.328 E.02633
G1 X113.672 Y128.9 E.6996
G1 X113.118 Y128.9 E.02628
G1 X124.1 Y139.882 E.73677
G1 X124.1 Y140.437 E.02633
G1 X112.563 Y128.9 E.774
G1 X112.009 Y128.9 E.02628
G1 X124.1 Y140.991 E.81117
G1 X124.1 Y141.546 E.02633
G1 X111.454 Y128.9 E.8484
G1 X110.9 Y128.9 E.02628
G1 X124.1 Y142.1 E.88557
G1 X123.546 Y142.1 E.02628
G1 X110.9 Y129.454 E.8484
G1 X110.9 Y130.009 E.02633
G1 X122.991 Y142.1 E.81117
G1 X122.437 Y142.1 E.02628
G1 X110.9 Y130.563 E.774
G1 X110.9 Y131.118 E.02633
G1 X121.882 Y142.1 E.73677
G1 X121.327 Y142.1 E.02633
G1 X110.9 Y131.673 E.69953
G1 X110.9 Y132.227 E.02628
G1 X120.773 Y142.1 E.66237
G1 X120.218 Y142.1 E.02633
G1 X110.9 Y132.782 E.62513
G1 X110.9 Y133.336 E.02628
G1 X119.664 Y142.1 E.58797
G1 X119.109 Y142.1 E.02633
G1 X110.9 Y133.891 E.55073
G1 X110.9 Y134.445 E.02628
G1 X118.555 Y142.1 E.51356
G1 X118 Y142.1 E.02633
G1 X110.9 Y135 E.47633
G1 X110.9 Y135.554 E.02628
G1 X117.446 Y142.1 E.43916
G1 X116.891 Y142.1 E.02633
G1 X110.9 Y136.109 E.40193
G1 X110.9 Y136.663 E.02628
G1 X116.337 Y142.1 E.36476
G1 X115.782 Y142.1 E.02633
G1 X110.9 Y137.218 E.32753
G1 X110.9 Y137.772 E.02628
G1 X115.228 Y142.1 E.29036
G1 X114.673 Y142.1 E.02633
G1 X110.9 Y138.327 E.25313
G1 X110.9 Y138.881 E.02628
G1 X114.119 Y142.1 E.21596
G1 X113.564 Y142.1 E.02633
G1 X110.9 Y139.436 E.17872
G1 X110.9 Y139.99 E.02628
G1 X113.01 Y142.1 E.14156
G1 X112.455 Y142.1 E.02633
M73 P5 R7
G1 X110.9 Y140.545 E.10432
G1 X110.9 Y141.099 E.02628
G1 X111.901 Y142.1 E.06716
G1 X111.346 Y142.1 E.02633
G1 X110.726 Y141.48 E.0416
EXCLUDE_OBJECT_END NAME='101P5_Test_text'
EXCLUDE_OBJECT_START NAME='102'
M221 S102
G10 ; retract
G1 X110.726 Y141.48 F30000
G1 X128.611 Y142.389
G11 ; unretract
;TYPE:Perimeter
;WIDTH:0.45
G1 F6223.76
G1 X128.611 Y128.611 E.64279
G1 X142.389 Y128.611 E.64279
G1 X142.389 Y135.5 E.3214
G1 X142.389 Y142.389 E.3214
G1 X128.671 Y142.389 E.63999
G1 X128.671 Y142.389 F30000
G1 X128.225 Y142.775
;TYPE:External perimeter
G1 F6223.76
G1 X128.225 Y128.225 E.67881
G1 X142.775 Y128.225 E.67881
G1 X142.775 Y135.5 E.33941
G1 X142.775 Y142.775 E.33941
G1 X128.285 Y142.775 E.67601
G1 X128.226 Y142.379 F30000
G10 ; retract
G1 X142.274 Y129.52
G11 ; unretract
;TYPE:Solid infill
;WIDTH:0.456491
G1 F6120.731
G1 X141.654 Y128.9 E.0416
G1 X141.099 Y128.9 E.02633
G1 X142.1 Y129.901 E.06716
G1 X142.1 Y130.455 E.02628
G1 X140.545 Y128.9 E.10432
G1 X139.99 Y128.9 E.02633
G1 X142.1 Y131.01 E.14156
G1 X142.1 Y131.564 E.02628
G1 X139.436 Y128.9 E.17872
G1 X138.881 Y128.9 E.02633
G1 X142.1 Y132.119 E.21596
G1 X142.1 Y132.673 E.02628
G1 X138.327 Y128.9 E.25313
G1 X137.772 Y128.9 E.02633
G1 X142.1 Y133.228 E.29036
G1 X142.1 Y133.782 E.02628
G1 X137.218 Y128.9 E.32753
G1 X136.663 Y128.9 E.02633
G1 X142.1 Y134.337 E.36476
G1 X142.1 Y134.891 E.02628
G1 X136.109 Y128.9 E.40193
G1 X135.554 Y128.9 E.02633
G1 X142.1 Y135.446 E.43916
G1 X142.1 Y136 E.02628
G1 X135 Y128.9 E.47633
G1 X134.445 Y128.9 E.02633
G1 X142.1 Y136.555 E.51356
G1 X142.1 Y137.109 E.02628
G1 X133.891 Y128.9 E.55073
G1 X133.336 Y128.9 E.02633
G1 X142.1 Y137.664 E.58797
G1 X142.1 Y138.219 E.02633
G1 X132.781 Y128.9 E.6252
G1 X132.227 Y128.9 E.02628
G1 X142.1 Y138.773 E.66237
G1 X142.1 Y139.328 E.02633
G1 X131.672 Y128.9 E.6996
G1 X131.118 Y128.9 E.02628
G1 X142.1 Y139.882 E.73677
G1 X142.1 Y140.437 E.02633
M73 P6 R7
G1 X130.563 Y128.9 E.774
G1 X130.009 Y128.9 E.02628
G1 X142.1 Y140.991 E.81117
G1 X142.1 Y141.546 E.02633
G1 X129.454 Y128.9 E.8484
G1 X128.9 Y128.9 E.02628
G1 X142.1 Y142.1 E.88557
G1 X141.546 Y142.1 E.02628
G1 X128.9 Y129.454 E.8484
G1 X128.9 Y130.009 E.02633
G1 X140.991 Y142.1 E.81117
G1 X140.437 Y142.1 E.02628
G1 X128.9 Y130.563 E.774
G1 X128.9 Y131.118 E.02633
G1 X139.882 Y142.1 E.73677
G1 X139.327 Y142.1 E.02633
G1 X128.9 Y131.673 E.69953
G1 X128.9 Y132.227 E.02628
G1 X138.773 Y142.1 E.66237
G1 X138.218 Y142.1 E.02633
G1 X128.9 Y132.782 E.62513
G1 X128.9 Y133.336 E.02628
G1 X137.664 Y142.1 E.58797
G1 X137.109 Y142.1 E.02633
G1 X128.9 Y133.891 E.55073
G1 X128.9 Y134.445 E.02628
G1 X136.555 Y142.1 E.51356
G1 X136 Y142.1 E.02633
G1 X128.9 Y135 E.47633
G1 X128.9 Y135.554 E.02628
G1 X135.446 Y142.1 E.43916
G1 X134.891 Y142.1 E.02633
G1 X128.9 Y136.109 E.40193
G1 X128.9 Y136.663 E.02628
G1 X134.337 Y142.1 E.36476
G1 X133.782 Y142.1 E.02633
G1 X128.9 Y137.218 E.32753
G1 X128.9 Y137.772 E.02628
G1 X133.228 Y142.1 E.29036
G1 X132.673 Y142.1 E.02633
G1 X128.9 Y138.327 E.25313
G1 X128.9 Y138.881 E.02628
G1 X132.119 Y142.1 E.21596
G1 X131.564 Y142.1 E.02633
G1 X128.9 Y139.436 E.17872
G1 X128.9 Y139.99 E.02628
G1 X131.01 Y142.1 E.14156
G1 X130.455 Y142.1 E.02633
G1 X128.9 Y140.545 E.10432
G1 X128.9 Y141.099 E.02628
G1 X129.901 Y142.1 E.06716
G1 X129.346 Y142.1 E.02633
G1 X128.726 Y141.48 E.0416
EXCLUDE_OBJECT_END NAME='102'
EXCLUDE_OBJECT_START NAME='100P5'
M221 S100.5
G10 ; retract
G1 X128.726 Y141.48 F30000
G1 X128.611 Y124.389
G11 ; unretract
;TYPE:Perimeter
;WIDTH:0.45
G1 F6223.76
G1 X128.611 Y110.611 E.64279
G1 X142.389 Y110.611 E.64279
M73 P7 R7
G1 X142.389 Y117.5 E.3214
G1 X142.389 Y124.389 E.3214
G1 X128.671 Y124.389 E.63999
G1 X128.671 Y124.389 F30000
G1 X128.225 Y124.775
;TYPE:External perimeter
G1 F6223.76
G1 X128.225 Y110.225 E.67881
G1 X142.775 Y110.225 E.67881
G1 X142.775 Y117.5 E.33941
G1 X142.775 Y124.775 E.33941
G1 X128.285 Y124.775 E.67601
G1 X128.226 Y124.379 F30000
G10 ; retract
G1 X142.274 Y111.52
G11 ; unretract
;TYPE:Solid infill
;WIDTH:0.456491
G1 F6120.731
G1 X141.654 Y110.9 E.0416
G1 X141.099 Y110.9 E.02633
G1 X142.1 Y111.901 E.06716
G1 X142.1 Y112.455 E.02628
G1 X140.545 Y110.9 E.10432
G1 X139.99 Y110.9 E.02633
G1 X142.1 Y113.01 E.14156
G1 X142.1 Y113.564 E.02628
G1 X139.436 Y110.9 E.17872
G1 X138.881 Y110.9 E.02633
G1 X142.1 Y114.119 E.21596
G1 X142.1 Y114.673 E.02628
G1 X138.327 Y110.9 E.25313
G1 X137.772 Y110.9 E.02633
G1 X142.1 Y115.228 E.29036
G1 X142.1 Y115.782 E.02628
G1 X137.218 Y110.9 E.32753
G1 X136.663 Y110.9 E.02633
G1 X142.1 Y116.337 E.36476
G1 X142.1 Y116.891 E.02628
G1 X136.109 Y110.9 E.40193
G1 X135.554 Y110.9 E.02633
G1 X142.1 Y117.446 E.43916
G1 X142.1 Y118 E.02628
G1 X135 Y110.9 E.47633
G1 X134.445 Y110.9 E.02633
G1 X142.1 Y118.555 E.51356
G1 X142.1 Y119.109 E.02628
G1 X133.891 Y110.9 E.55073
G1 X133.336 Y110.9 E.02633
G1 X142.1 Y119.664 E.58797
G1 X142.1 Y120.219 E.02633
G1 X132.781 Y110.9 E.6252
G1 X132.227 Y110.9 E.02628
G1 X142.1 Y120.773 E.66237
G1 X142.1 Y121.328 E.02633
G1 X131.672 Y110.9 E.6996
G1 X131.118 Y110.9 E.02628
G1 X142.1 Y121.882 E.73677
G1 X142.1 Y122.437 E.02633
G1 X130.563 Y110.9 E.774
G1 X130.009 Y110.9 E.02628
G1 X142.1 Y122.991 E.81117
G1 X142.1 Y123.546 E.02633
M73 P8 R7
G1 X129.454 Y110.9 E.8484
G1 X128.9 Y110.9 E.02628
